assets/heroku-logo.svg

<svg height="40" viewBox="0 0 143 40" width="143" xmlns="http://www.w3.org/2000/svg"><path d="m32.274167 0h-28.68814845c-1.98027913 0-3.58601855 1.612-3.58601855 3.6v32.8c0 1.988 1.60573942 3.6 3.58601855 3.6h28.68814845c1.9802791 0 3.5860185-1.612 3.5860185-3.6v-32.8c0-1.988-1.6057394-3.6-3.5860185-3.6zm1.593786 36.4c0 .8825-.7147134 1.6-1.593786 1.6h-28.68814845c-.87857454 0-1.59378602-.7175-1.59378602-1.6v-32.8c0-.8825.71521148-1.6 1.59378602-1.6h28.68814845c.8790726 0 1.593786.7175 1.593786 1.6zm-24.90290662-2.4 4.48252322-4-4.48252322-4zm16.19535632-16.2125c-.8028697-.8155-2.2771218-1.7875-4.7400193-1.7875-2.7009692 0-5.4816278.7055-7.470872 1.3555v-11.3555h-3.98446502v17.346l2.81452652-1.28c.0453233-.0205 4.5896057-2.066 8.6408105-2.066 2.0226141 0 2.4708664 1.1215 2.4902907 2.055v11.945h3.9844651v-12c.0024902-.256-.0214165-2.4725-1.7347365-4.2125zm-5.2380774-5.2875h3.9844651c1.8019743-2.05 2.7193974-4.228 2.9883488-6.5h-3.9844651c-.4392873 2.267-1.422454 4.4375-2.9883488 6.5zm110.5135697 9.4021404v-8.8511463h4.000301v8.8316052c0 2.0367908.660112 2.9557267 2.260734 2.9557267 1.599619 0 2.239667-.9189359 2.239667-2.9557267v-8.8316052h3.920546v8.8511463c0 3.9167513-1.880016 6.1534633-6.200341 6.1534633-4.320827 0-6.220907-2.236712-6.220907-6.1534633zm-16.853933-8.8511463h3.9998v5.3552817l4.081059-5.3552817h4.640349l-4.980939 5.8342908 5.420345 8.9508565h-4.520465l-3.499699-5.9144598-1.14065 1.3187782v4.5956816h-3.9998zm-18.9942814 7.3920726c0-5.4134043 3.6998395-7.6721627 7.2802974-7.6721627 3.560393 0 7.260734 2.2587584 7.260734 7.6721627 0 5.4144063-3.700341 7.6721626-7.260734 7.6721626-3.5804579 0-7.2802974-2.2577563-7.2802974-7.6721626zm10.5402284 0c0-2.7172243-1.179775-4.3752171-3.259931-4.3752171-2.1002212 0-3.2799965 1.6579928-3.2799965 4.3752171 0 2.7182264 1.1797753 4.4759292 3.2799965 4.4759292 2.080156 0 3.259931-1.7577028 3.259931-4.4759292zm-26.6146666-7.3920726h5.7804976c3.8001605 0 6.1205858 1.2591526 6.1205858 4.8151438 0 2.317382-.980638 3.6567035-2.9203451 4.3150905l3.1400482 5.654913h-4.2400682l-2.8606541-5.1343163h-1.1000201v5.1343163h-3.9200441zm5.6400481 6.6129312c1.6402488 0 2.3600522-.459468 2.3600522-1.6980773 0-1.2381083-.7198034-1.6785361-2.3600522-1.6785361h-1.720004v3.3766134zm-20.9349919-6.6129312h10.5607945v3.3169877h-6.5604936v2.3975509h4.6804775v3.1170666h-4.6804775v2.7367654h6.9010835v3.2167767h-10.9013844zm-18.0738363 0h4.0003009v5.4940741h4.9202448v-5.4940741h4.0008026v14.7851473h-4.0008026v-5.9740854h-4.9202448v5.9740854h-4.0003009z" fill="#fff" fill-rule="evenodd" transform=""/></svg>

<?xml version="1.0" encoding="UTF-8" standalone="no"?>
<svg width="143px" height="40px" viewBox="0 0 143 40" version="1.1" xmlns="http://www.w3.org/2000/svg" xmlns:xlink="http://www.w3.org/1999/xlink" xmlns:sketch="http://www.bohemiancoding.com/sketch/ns">
    <!-- Generator: Sketch 3.3.3 (12072) - http://www.bohemiancoding.com/sketch -->
    <title>logo</title>
    <desc>Created with Sketch.</desc>
    <defs></defs>
    <g id="Page-1" stroke="none" stroke-width="1" fill="none" fill-rule="evenodd" sketch:type="MSPage">
        <g id="main" sketch:type="MSArtboardGroup" transform="translate(-25.000000, -23.000000)" fill="#FFFFFF">
            <g id="nav" sketch:type="MSLayerGroup" transform="translate(25.000000, 23.000000)">
                <path d="M32.274167,0 L3.58601855,0 C1.60573942,0 0,1.612 0,3.6 L0,36.4 C0,38.388 1.60573942,40 3.58601855,40 L32.274167,40 C34.2544461,40 35.8601855,38.388 35.8601855,36.4 L35.8601855,3.6 C35.8601855,1.612 34.2544461,0 32.274167,0 Z M33.867953,36.4 C33.867953,37.2825 33.1532396,38 32.274167,38 L3.58601855,38 C2.70744401,38 1.99223253,37.2825 1.99223253,36.4 L1.99223253,3.6 C1.99223253,2.7175 2.70744401,2 3.58601855,2 L32.274167,2 C33.1532396,2 33.867953,2.7175 33.867953,3.6 L33.867953,36.4 Z M8.96504638,34 L13.4475696,30 L8.96504638,26 L8.96504638,34 Z M25.1604027,17.7875 C24.357533,16.972 22.8832809,16 20.4203834,16 C17.7194142,16 14.9387556,16.7055 12.9495114,17.3555 L12.9495114,6 L8.96504638,6 L8.96504638,23.346 L11.7795729,22.066 C11.8248962,22.0455 16.3691786,20 20.4203834,20 C22.4429975,20 22.8912498,21.1215 22.9106741,22.055 L22.9106741,34 L26.8951392,34 L26.8951392,22 C26.8976294,21.744 26.8737227,19.5275 25.1604027,17.7875 Z M19.9223253,12.5 L23.9067904,12.5 C25.7087647,10.45 26.6261878,8.272 26.8951392,6 L22.9106741,6 C22.4713868,8.267 21.4882201,10.4375 19.9223253,12.5 Z M130.435895,21.9021404 L130.435895,13.0509941 L134.436196,13.0509941 L134.436196,21.8825993 C134.436196,23.9193901 135.096308,24.838326 136.69693,24.838326 C138.296549,24.838326 138.936597,23.9193901 138.936597,21.8825993 L138.936597,13.0509941 L142.857143,13.0509941 L142.857143,21.9021404 C142.857143,25.8188917 140.977127,28.0556037 136.656802,28.0556037 C132.335975,28.0556037 130.435895,25.8188917 130.435895,21.9021404 Z M113.581962,13.0509941 L117.581762,13.0509941 L117.581762,18.4062758 L121.662821,13.0509941 L126.30317,13.0509941 L121.322231,18.8852849 L126.742576,27.8361414 L122.222111,27.8361414 L118.722412,21.9216816 L117.581762,23.2404598 L117.581762,27.8361414 L113.581962,27.8361414 L113.581962,13.0509941 Z M94.5876806,20.4430667 C94.5876806,15.0296624 98.2875201,12.770904 101.867978,12.770904 C105.428371,12.770904 109.128712,15.0296624 109.128712,20.4430667 C109.128712,25.857473 105.428371,28.1152293 101.867978,28.1152293 C98.2875201,28.1152293 94.5876806,25.857473 94.5876806,20.4430667 Z M105.127909,20.4430667 C105.127909,17.7258424 103.948134,16.0678496 101.867978,16.0678496 C99.7677568,16.0678496 98.5879815,17.7258424 98.5879815,20.4430667 C98.5879815,23.1612931 99.7677568,24.9189959 101.867978,24.9189959 C103.948134,24.9189959 105.127909,23.1612931 105.127909,20.4430667 Z M78.5132424,13.0509941 L84.29374,13.0509941 C88.0939005,13.0509941 90.4143258,14.3101467 90.4143258,17.8661379 C90.4143258,20.1835199 89.4336878,21.5228414 87.4939807,22.1812284 L90.6340289,27.8361414 L86.3939607,27.8361414 L83.5333066,22.7018251 L82.4332865,22.7018251 L82.4332865,27.8361414 L78.5132424,27.8361414 L78.5132424,13.0509941 Z M84.1532905,19.6639253 C85.7935393,19.6639253 86.5133427,19.2044573 86.5133427,17.965848 C86.5133427,16.7277397 85.7935393,16.2873119 84.1532905,16.2873119 L82.4332865,16.2873119 L82.4332865,19.6639253 L84.1532905,19.6639253 Z M63.2182986,13.0509941 L73.7790931,13.0509941 L73.7790931,16.3679818 L67.2185995,16.3679818 L67.2185995,18.7655327 L71.899077,18.7655327 L71.899077,21.8825993 L67.2185995,21.8825993 L67.2185995,24.6193647 L74.119683,24.6193647 L74.119683,27.8361414 L63.2182986,27.8361414 L63.2182986,13.0509941 Z M45.1444623,13.0509941 L49.1447632,13.0509941 L49.1447632,18.5450682 L54.065008,18.5450682 L54.065008,13.0509941 L58.0658106,13.0509941 L58.0658106,27.8361414 L54.065008,27.8361414 L54.065008,21.862056 L49.1447632,21.862056 L49.1447632,27.8361414 L45.1444623,27.8361414 L45.1444623,13.0509941 Z" id="logo" sketch:type="MSShapeGroup"></path>
            </g>
        </g>
    </g>
</svg>
